_site/assets/img/grab1.svg

<svg width="60" height="63" viewBox="0 0 60 63" fill="none" xmlns="http://www.w3.org/2000/svg">
<g filter="url(#filter0_d)">
<path d="M22.3837 50.9289V53.3592H44.1329C44.1329 45.9454 45.4556 44.8687 48.0705 41.4233C50.6853 37.9779 50.5622 33.1482 51.116 30.7795C51.6697 28.4107 52.7464 25.0269 53.054 22.4428C53.3924 19.8588 53.4847 17.6746 51.6389 17.0286C49.7932 16.3826 46.5016 16.2595 43.7945 25.7036C43.7945 25.7036 44.0098 17.9515 44.0098 15.7981C44.0098 13.6447 42.7793 10.4146 40.4106 10.2608C38.0419 10.107 35.3348 11.0299 34.9656 16.4749C34.5965 21.9198 34.6272 25.4883 34.6272 25.4883C34.6272 25.4883 34.5657 17.1516 34.5042 13.8293C34.4426 10.5069 34.012 7 30.1974 7C27.275 7 25.583 9.24567 25.5523 12.2912C25.4907 15.3367 25.7368 25.6114 25.7368 25.6114C25.7368 25.6114 24.4756 17.5823 22.0146 13.4601C19.5536 9.33795 17.6155 9.76863 15.8005 10.3531C13.9855 10.9376 12.4782 12.6603 14.0163 16.4133C15.5544 20.1664 17.5848 24.227 19.3998 32.2561C19.3998 32.2561 17.0003 28.4723 14.7546 26.7496C12.5089 25.0269 8.38676 25.5806 7.43312 27.6724C6.47948 29.7643 7.21778 31.8254 8.50981 33.6404C9.80183 35.4554 11.6168 36.6244 13.1242 39.3007C14.6316 41.977 15.216 44.0074 17.8309 46.0992C20.4457 48.1603 22.3837 49.2985 22.3837 50.9289Z" fill="white" stroke="black" stroke-width="2" stroke-miterlimit="10" stroke-linecap="round" stroke-linejoin="round"/>
<path d="M28.5978 33.6405V44.1921" stroke="black" stroke-width="2" stroke-miterlimit="10" stroke-linecap="round" stroke-linejoin="round"/>
<path d="M34.5042 33.6405V44.1921" stroke="black" stroke-width="2" stroke-miterlimit="10" stroke-linecap="round" stroke-linejoin="round"/>
<path d="M40.4106 33.6405V44.1921" stroke="black" stroke-width="2" stroke-miterlimit="10" stroke-linecap="round" stroke-linejoin="round"/>
</g>
<defs>
<filter id="filter0_d" x="-4" y="0" width="68" height="68" filterUnits="userSpaceOnUse" color-interpolation-filters="sRGB">
<feFlood flood-opacity="0" result="BackgroundImageFix"/>
<feColorMatrix in="SourceAlpha" type="matrix" values="0 0 0 0 0 0 0 0 0 0 0 0 0 0 0 0 0 0 127 0"/>
<feOffset dy="4"/>
<feGaussianBlur stdDeviation="2"/>
<feColorMatrix type="matrix" values="0 0 0 0 0 0 0 0 0 0 0 0 0 0 0 0 0 0 0.5 0"/>
<feBlend mode="normal" in2="BackgroundImageFix" result="effect1_dropShadow"/>
<feBlend mode="normal" in="SourceGraphic" in2="effect1_dropShadow" result="shape"/>
</filter>
</defs>
</svg>

<svg fill="none" height="63" width="60" xmlns="http://www.w3.org/2000/svg" xmlns:xlink="http://www.w3.org/1999/xlink"><filter id="a" color-interpolation-filters="sRGB" filterUnits="userSpaceOnUse" height="68" width="68" x="-4" y="0"><feFlood flood-opacity="0" result="BackgroundImageFix"/><feColorMatrix in="SourceAlpha" values="0 0 0 0 0 0 0 0 0 0 0 0 0 0 0 0 0 0 127 0"/><feOffset dy="4"/><feGaussianBlur stdDeviation="2"/><feColorMatrix values="0 0 0 0 0 0 0 0 0 0 0 0 0 0 0 0 0 0 0.5 0"/><feBlend in2="BackgroundImageFix" result="effect1_dropShadow"/><feBlend in="SourceGraphic" in2="effect1_dropShadow" result="shape"/></filter><g style="stroke:#000;stroke-width:2;stroke-miterlimit:10;stroke-linecap:round;stroke-linejoin:round;filter:url(#a)"><path d="m22.384 50.929v2.43h21.749c0-7.414 1.323-8.49 3.938-11.936 2.614-3.445 2.491-8.275 3.045-10.644.554-2.368 1.63-5.752 1.938-8.336.338-2.584.43-4.768-1.415-5.414-1.846-.646-5.137-.77-7.845 8.675 0 0 .216-7.753.216-9.906s-1.23-5.383-3.6-5.537c-2.368-.154-5.075.769-5.444 6.214-.37 5.445-.339 9.013-.339 9.013s-.061-8.336-.123-11.659c-.061-3.322-.492-6.829-4.307-6.829-2.922 0-4.614 2.246-4.645 5.291-.061 3.046.185 13.32.185 13.32s-1.261-8.029-3.722-12.15c-2.461-4.123-4.4-3.692-6.215-3.108-1.815.585-3.322 2.307-1.784 6.06s3.569 7.814 5.384 15.843c0 0-2.4-3.784-4.645-5.506-2.246-1.723-6.368-1.17-7.322.922s-.215 4.153 1.077 5.968 3.107 2.984 4.614 5.66c1.508 2.677 2.092 4.707 4.707 6.8 2.615 2.06 4.553 3.198 4.553 4.829z" fill="#fff"/><path d="m28.598 33.64v10.552m5.906-10.552v10.552m5.906-10.552v10.552"/></g></svg>
